2 Export/Icons/Rounded/Person.svg

<svg xmlns="http://www.w3.org/2000/svg" xmlns:xlink="http://www.w3.org/1999/xlink" width="24" height="24" viewBox="0 0 24 24">
  <defs>
    <path id="person-a" d="M12 12c2.21 0 4-1.79 4-4s-1.79-4-4-4-4 1.79-4 4 1.79 4 4 4zm0 2c-2.67 0-8 1.34-8 4v1c0 .55.45 1 1 1h14c.55 0 1-.45 1-1v-1c0-2.66-5.33-4-8-4z"/>
  </defs>
  <g fill="none" fill-rule="evenodd">
    <polygon points="0 0 24 0 24 24 0 24"/>
    <mask id="person-b" fill="#fff">
      <use xlink:href="#person-a"/>
    </mask>
    <use fill="#000" xlink:href="#person-a"/>
    <g fill="#000" mask="url(#person-b)">
      <rect width="24" height="24"/>
    </g>
  </g>
</svg>

<svg xmlns="http://www.w3.org/2000/svg" xmlns:xlink="http://www.w3.org/1999/xlink" width="24" height="24" viewBox="0 0 24 24">
  <defs>
    <path id="person-a" d="M12,12 C14.21,12 16,10.21 16,8 C16,5.79 14.21,4 12,4 C9.79,4 8,5.79 8,8 C8,10.21 9.79,12 12,12 Z M12,14 C9.33,14 4,15.34 4,18 L4,19 C4,19.55 4.45,20 5,20 L19,20 C19.55,20 20,19.55 20,19 L20,18 C20,15.34 14.67,14 12,14 Z"/>
  </defs>
  <g fill="none" fill-rule="evenodd">
    <polygon points="0 0 24 0 24 24 0 24"/>
    <mask id="person-b" fill="#fff">
      <use xlink:href="#person-a"/>
    </mask>
    <use fill="#000" xlink:href="#person-a"/>
    <g fill="#000" mask="url(#person-b)">
      <rect width="24" height="24"/>
    </g>
  </g>
</svg>
